dist/icons/a1.svg

<svg width="20" height="20" viewBox="0 0 20 20" fill="none" xmlns="http://www.w3.org/2000/svg">
<path d="M9.52546 17.0001L8.73346 14.2461H4.28746L3.49546 17.0001H0.147461L4.52146 4.09411H8.44546L12.8735 17.0001H9.52546ZM7.29346 9.11611C7.23346 8.90011 7.14946 8.61211 7.04146 8.25211C6.94546 7.88011 6.84346 7.50211 6.73546 7.11811C6.63946 6.73411 6.56146 6.41011 6.50146 6.14611C6.45346 6.41011 6.37546 6.74011 6.26746 7.13611C6.17146 7.52011 6.07546 7.89811 5.97946 8.27011C5.88346 8.63011 5.80546 8.91211 5.74546 9.11611L4.98946 11.6901H8.04946L7.29346 9.11611Z" fill="black" fill-opacity="0.5"/>
<path d="M18.13 1.80811V9.51211H15.862V5.94811C15.862 5.80411 15.868 5.60611 15.88 5.35411C15.892 5.09011 15.904 4.83811 15.916 4.59811C15.928 4.34611 15.94 4.17811 15.952 4.09411C15.88 4.20211 15.784 4.32211 15.664 4.45411C15.544 4.57411 15.436 4.67611 15.34 4.76011L14.638 5.31811L13.54 4.04011L16.348 1.80811H18.13Z" fill="black" fill-opacity="0.5"/>
</svg>

<svg width="20" height="20" fill="none" xmlns="http://www.w3.org/2000/svg"><path d="M9.525 17l-.792-2.754H4.287L3.495 17H.147L4.521 4.094h3.924L12.873 17H9.526zM7.293 9.116c-.06-.216-.144-.504-.252-.864-.096-.372-.198-.75-.306-1.134a47.769 47.769 0 01-.234-.972c-.048.264-.126.594-.234.99-.096.384-.192.762-.288 1.134-.096.36-.174.642-.234.846L4.99 11.69h3.06l-.756-2.574zM18.13 1.808v7.704h-2.268V5.948c0-.144.006-.342.018-.594l.036-.756c.012-.252.024-.42.036-.504a3.135 3.135 0 01-.288.36c-.12.12-.228.222-.324.306l-.702.558L13.54 4.04l2.808-2.232h1.782z" fill="#000" fill-opacity=".5"/></svg>
